X:1
T:Papa, Please, Buy Me an Airship
T:Papa, Please, Buy Me an Airship
T:Music by KERRY MILLS 
T:Words by REN. SHIELDS 
T:1909
T:1909
T:1909
T:1909
C:Ren. Shields
Z:Kerry Mills
Z:1909
%%score ( 1 2 ) { ( 3 5 6 ) | ( 4 7 ) }
L:1/8
Q:1/4=92
M:3/4
K:Eb
V:1 treble nm="Voice"
V:2 treble 
V:3 treble nm="Piano"
V:5 treble 
V:6 treble 
V:4 bass 
V:7 bass 
V:1
"^Andante" z2 | z6 |[Q:1/4=114]"^Moderato" z6 | z6 | z6 | z6 | z6 | z6 | z2 z2 || B x | G2 ^F2 G2 | %11
w: |||||||||Once,|sweet lit- tle|
w: |||||||||Now,|cute lit- tle|
 B4 A x | z2 z2 A2 | c4 B x | x4 e2 | c4 e2 | B6- | B2 z2 B x | x2 G2 A2 | c4 B x | x2 x2 x2 | %21
w: maid, with|a|braid sat|dear|dad- dy's|knee;|_ while|them so|high, in||
w: mite, while|that|night, Sail'd|on|a big|star;|_ Up|all the|clouds, miles||
 d4 G2 | F2 G2 =A2 | d2 c2 F2 | B6- | B2 z2 B x | G2 F2 G2 | B4 A x | A2 G2 A2 | c4 B x | %30
w: sky, An|air- ship, they|both chanc'd to|see;|_ now|maid in sur-|prise gazed|won- der- ing|eyes, As|
w: crowds, She|jour- ney'd on|ev- er so|far;|_ Like|An- gel she|flew, to|Heav- ens so|blue, Where|
 B2 e2 d2 | e2 B2 =B2 | c6- | c2 z2 c2 | c2 =B2 c2 | d4 c x | B2 =A2 B2 | c4 B x | F2 G2 =A2 | %39
w: ship swift- ly|sail'd o'er her|head.|_ She|watch'd with de-|light, till|sail'd out of|sight, Then|turn'd to her|
w: moth- er's sweet|face, there, she|spied:|_ Just|as ma- ma|spoke, from|dream, she a-|woke, When|found she was|
 d2 c2 F2 | B6- | B2 z2 z2 ||"^CHORUS" G2 F2 E2 | G2 F2 E2 | A6 | D6 | A2 G2 A2 | d4 c2 | B6- | %49
w: dad- dy and|said:|_|"Pa- pa, please|buy me an|air-|ship,|One that will|sail so|high,|
w: dream- ing she|cried:|||||||||
 B2 z2 =B2 | c2 d2 c2 | B4 G x | A2 B2 A2 | G4 _G2 | F2 G2 =A2 | e2 d2 c2 | F6- | F2 z2 ^F2 | %58
w: _ With|lots of room,|too, so|I can take|you, With|me for a|trip to the|sky.|_ We'll|
w: |||||||||
 G2 F2 E2 | G2 F2 E2 | A6 | D4 A2 | A2 G2 A2 | A2 d2 c2 | B6- | B2 z2 B2 | e2 d2 e2 | B2 A2 G2 | %68
w: sail till we|see the bright|An-|gels, That|live on the|beau- ti- ful|shore,|_ And|tell them we've|come af ter|
w: ||||||||||
 F6 | c4 _c2 | B2 c2 e2 | c4 B2 | e6- | e4 :| %74
w: ma-|ma, To|bring her back|home once|More."|_|
w: ||||||
V:2
 x2 | x6 | x6 | x6 | x6 | x6 | x6 | x6 | x4 || x A | x6 | x5 G | A2 G2 z2 | x5 =A | c4 x2 | x6 | %16
w: |||||||||a||her|hair in|on|her||
w: |||||||||this||a-|dream- ing|a-|way||
 x6 | x5 =A | A2 x4 | x5 A | G2 _G2 =G2 | x6 | x6 | x6 | x6 | x5 A | x6 | x5 G | x6 | x5 =A | x6 | %31
w: |a-|bove|the|beau- ti- ful|||||the||with||the||
w: |a-|bove|a-|way from the|||||an||the||her||
 x6 | x6 | x6 | x6 | x5 _c | x6 | x5 G | x6 | x6 | x6 | x6 || x6 | x6 | x6 | x6 | x6 | x6 | x6 | %49
w: ||||it||she||||||||||||
w: ||||her||she||||||||||||
 x6 | x6 | x5 E | x6 | x6 | x6 | x6 | x6 | x6 | x6 | x6 | x6 | x6 | x6 | x6 | x6 | x6 | x6 | x6 | %68
w: ||that|||||||||||||||||
w: |||||||||||||||||||
 x6 | x6 | x6 | x6 | x6 | x4 :| %74
w: ||||||
w: ||||||
V:3
!mf! B2 | [Ge]2 [Gd]2 [Ge]2 | [_DB]2 [DA]2 [DG]2 |!<(! F6!<)! | [Cc]4 x2 | [GB]2 [Gc]2 [Ge]2 | %6
 [Cc]4 x2 |"_poco rall." [GB]2 [EA]2!>(! [EF]2 | [EG]2!>)! z2 ||!p! [B,D]2 | %10
 [B,EG]2 [B,E^F]2 [B,EG]2 | [B,B]4 [B,^C]2 | [B,DAA]2 [B,DG]2 [B,DA]2 | [Cc]4 x2 | [B,B]4 x2 | %15
 [Cc]4 x2 |!<(! [B,B]6-!<)! |!>(! x2 [EG]2 E2!>)! | [B,DA]2 [B,DA]2 [B,DA]2 | [Cc]4 BA | %20
 [B,EG]2 [B,E^F]2 [B,EG]2 | [B,B]4 z2 | [_EF]2 [EG]2 [E=A]2 | [Fd]2 [Ec]2 [EF]2 | %24
!<(! [DB]2 [B,D]2!<)! [CE]2 | [_D=E]2 [=D_G]2 [DG]2 | [DGB]2 [B,E^F]2 [B,EG]2 | [B,B]2 x2 x2 | %28
 [B,DA]2 [B,DG]2 [B,DA]2 | [Cc]4 x2 | [EGB]2 [EGe]2 [DGd]2 | [EGe]2 [EB]2 [E=B]2 | [Cc]6- | %33
 [Cc]2 z2 [Cc]2 | [CFAc]2 [=B,F=A=B]2 [CFAc]2 | [Dd]4 c_c | [EGB]2 [E=A]2 [EGB]2 | [Dc]4 BG | %38
 [CEF]2 [B,EG]2 [CE=A]2 | [Fd]2 [Ec]2 [EF]2 |!<(! ([DAB]2 [FAc]2 [EAc]2!<)! | %41
!>(! [DAB]2 [CDA]2 [A,DF]2)!>)! || [B,E]2 [B,F]2 [B,E]2 | [B,E]2 [B,F]2 [B,E]2 | A6 | D6 | %46
 [B,DA]2 [B,DG]2 [B,DA]2 | [Dd]4 x2 | [B,B]2 E2 F2 | [EG]2 [EB]2 [E=B]2 | [EAc]2 [EAd]2 [EAc]2 | %51
 B4 GE | [B,DA]2 [B,DB]2 [A,DFA]2 | [B,B]4 x2 | x6 | x6 |!<(! x6!<)! |!>(! [DAB]2 [A,D]4!>)! | %58
!p! [B,E]2 [B,F]2 [B,E]2 | [B,E]2 [B,F]2 [B,E]2 |!<(! A6!<)! | D4!>(! A2 | %62
 [B,DA]2!>)! [B,DG]2 [B,DA]2 | [DA]2 [Ad]2 [Ac]2 |!<(! [B,GB]2 C2 D2!<)! | E2 G2 [GB]2 | %66
!mf! [Ge]2 [Gd]2 [Ge]2 | [EB]2 [EA]2 [EG]2 | F6 | [Cc]2 z2 x2 | [GB]2 [Gc]2 [Ge]2 | [Cc]4 z2 | %72
 e6- | [EGe]4 :| %74
V:4
 z2 | [E,,E,]2 [G,B,E]2 [G,B,E]2 | [G,,G,]2 [E,G,B,]2 [E,G,B,]2 | [A,,A,]6 | [=A,,=A,]6 | %5
 [B,,B,]2 [G,B,E]2 [G,B,E]2 | [F,,F,]4 [B,,,B,,]2 | E,6- | x2 z2 || [B,,A,]2 | [E,,E,]6 | %11
 [=E,,=E,]6 | [F,,F,]6 | [D,,D,]6 | [E,,E,]2 z2 z2 | [E,,E,]6 | E,,6- | E,,4 x2 | [F,,F,]2 z2 z2 | %19
 [D,,D,]2 z2 z2 | [E,,E,]6 | [=E,,=E,]6 | [F,,F,]2 [F,=A,]2 [F,A,]2 | [F,,F,]2 [F,=A,]2 [F,A,]2 | %24
 B,,6 | B,,4 x2 | x6 | x6 | x6 | x6 | [E,,E,]2 [G,B,]2 [G,B,]2 | [G,,G,]2 [G,B,]2 [G,=B,]2 | %32
 [A,,A,]4 [G,,G,]2 | [F,,F,]2 z2 z2 | [A,,A,]6 | [=A,,=A,]6 | B,,6 | x6 | [F,,F,]6 | %39
 [F,,F,]2 [F,=A,]2 [F,A,]2 | [D,,D,]6- | [D,,D,]6 || [E,,E,]2 [E,G,]2 [E,G,]2 | %43
 [B,,,B,,]2 [E,G,]2 [E,G,]2 | (F,,6 | B,,6) | [F,,F,]6 | [D,,D,]6 | [E,,E,]2 [G,B,]2 [G,B,]2 | %49
 [E,,E,]2 [G,B,]2 [G,=B,]2 | [A,,A,]6 | [G,,G,]6 | [B,,,B,,]4 [B,,,B,,]2 | [C,,C,]4 [=E,,=E,]2 | %54
 [F,,F,]6 | [F,,F,]2 [F,=A,]2 [F,A,]2 | [B,,A,]6 | [B,,,B,,]6 | [E,,E,]2 [E,G,]2 [E,G,]2 | %59
 [B,,,B,,]2 [E,G,]2 [E,G,]2 | (F,,6 | B,,6) | [F,,F,]6 | [B,,,B,,]2 [A,B,D]2 [A,B,D]2 | %64
 [B,,,B,,]2 [G,B,]2 [G,B,]2 | [B,,,B,,]2 [G,B,]2 [G,B,]2 | [E,,E,]2 [G,B,E]2 [G,B,E]2 | %67
 [G,,G,]2 [E,G,B,]2 [E,G,B,]2 | [A,,A,]6 | [=A,,=A,]6 | [B,,B,]2 [G,B,E]2 [G,B,E]2 | %71
 [F,,F,]4 [B,,,B,,]2 | E,6- | E,4 :| %74
V:5
 x2 | x6 | x6 | x2 [CE]2 [CE]2 | x2 [E^F]2 [_CEF_c]2 | x6 | x2 [E=A]2 [D_AB]2 | (e6 | e2) x2 || %9
 BA | x6 | z2 [^CG]2 AG | x6 | z2 [EG]2 [EGBe]2 | z2 [EG]2 [EGBe]2 | z2 [E^F=A]2 [EFAe]2 | %16
 z2 [EG]2 [EG]2 | [B,B]2 x2 B=A | x6 | z2 [DA]2 [B,D]2 | x6 | c2 [^CG]2 [B,CB]2 | x6 | x6 | x6 | %25
 x4 d!>(!=A!>)! | x6 | z2 [^CB]2 [B,C]2 | x6 | z2 [DA]2 [DF]2 | x6 | x6 | z2 [EA]2 [=EB]2 | %33
 [FA]2 x4 | x6 | z2 [E_G]2 [EG]2 | x6 | z2 [=EB]2 [C_E]2 | x6 | x6 | x6 | x6 || GG x4 | GB x4 | %44
 z2 [B,D]2 [B,D]2 | z2 [A,B,]2 [A,B,]2 | x6 | z2 [FA]2 [CFAc]2 | z6 | x6 | x6 | z2 [B,E]2 B,2 | %52
 x6 | z2 [CE]2 [B,^C_G]2 | [=A,EF]2 [B,EG]2 [CE=A]2 | [G=Ae]2 [FAd]2 [EAc]2 | [DF]2 [FAd]2 [EAc]2 | %57
 x2 F2 ^F2 | GB x4 | GB x4 | z2 [B,D]2 [B,D]2 | z2 [A,B,]2 [B,DA]2 | x6 | x6 | x6 | x6 | x6 | x6 | %68
 z2 [CE]2 [CE]2 | z2 [E^F]2 [_CE=F_c]2 | x6 | z2 [E=A]2 [D_AB]2 | [GB]2!>(! [EA]2 [EF]2 | x4!>)! :| %74
V:6
 x2 | x6 | x6 | x6 | x6 | x6 | z2 x2 z2 | x6 | x4 || x2 | x6 | x6 | x6 | x6 | x6 | x6 | x6 | x6 | %18
 x6 | x6 | x6 | x6 | x6 | x6 | x6 | x6 | x6 | x4 AG | x6 | x4 d=A | x6 | x6 | x6 | x6 | x6 | x6 | %36
 x6 | x6 | x6 | x6 | x6 | x6 || x6 | x6 | x6 | x6 | x6 | x6 | x6 | x6 | x6 | x6 | x6 | x6 | x6 | %55
 x6 | x6 | x6 | x6 | x6 | x6 | x6 | x6 | x6 | x6 | x6 | x6 | x6 | x6 | x6 | x6 | x6 | x6 | x4 :| %74
V:7
 x2 | x6 | x6 | x6 | x6 | x6 | x6 | z2 C2 A,2 | [E,B,]2 z2 || x2 | x6 | x6 | x6 | x6 | x6 | x6 | %16
 E,2 B,,2 C,2 | D,2 E,2 [G,,G,]2 | x6 | x6 | x6 | x6 | x6 | x6 | z2 (F,2 _G,2 | G,2 A,2 [B,,A,]2) | %26
 [E,,E,]6 | [=E,,=E,]6 | [F,,F,]6 | [B,,,B,,]4 z2 | z6 | x6 | x6 | x6 | x6 | x6 | G,2 ^F,2 G,2 | %37
 [G,,G,]4 [C,,C,]2 | x6 | x6 | x6 | x6 || x6 | x6 | z2 (F,2 G,2 | A,2 G,2 F,2) | x6 | x6 | x6 | %49
 x6 | x6 | x6 | x6 | x6 | x6 | x6 | x6 | x6 | x6 | x6 | z2 ((F,2 G,2 | A,2 G,2 F,2)) | x6 | x6 | %64
 x6 | x6 | x6 | x6 | x6 | x6 | x6 | x6 | B,2 C2 A,2 | B,4 :| %74

